assets/images/bianjie.svg

<svg xmlns="http://www.w3.org/2000/svg" preserveAspectRatio="xMidYMid" width="120" height="30" viewBox="0 0 120 30"><defs><style>.cls-1{fill:#0d0d0d;fill-rule:evenodd}</style></defs><path d="M114.703 19.492c-.782.548-1.289.392-1.523-.469-.938-3.358-2.227-5.78-3.867-7.265-.158-.235-.118-.311.117-.235 4.14 1.641 6.405 3.282 6.797 4.922-.079 1.251-.586 2.267-1.524 3.047zm-5.273 3.633l-.117-3.281c0-.156.076-.273.234-.352.077 0 .156.079.234.235l.821 2.343c.468 1.095 1.131 1.992 1.992 2.696 1.249.937 1.093 1.796-.469 2.578-2.736.859-6.368.976-10.898.351-2.579-.468-3.829-2.303-3.75-5.507l.234-9.024c0-2.344-.04-3.75-.117-4.219 0-.155.077-.194.234-.117l3.164 1.406c.156 0 .156.118 0 .352l-.351.703-.938 11.367c-.157 1.564.586 2.344 2.227 2.344 2.499.313 4.804.117 6.914-.586.469-.156.663-.586.586-1.289zm-5.157-15.586c-1.016-2.655-2.343-4.453-3.984-5.391-.157-.155-.079-.234.234-.234 3.985 1.095 6.094 2.15 6.329 3.164 0 1.251-.392 2.188-1.172 2.813-.782.468-1.251.351-1.407-.352zM90.914 21.484c-.861-.155-.937-.858-.234-2.109 1.327-1.718 2.03-4.374 2.109-7.969 0-.155.117-.234.352-.234.077 0 .155.079.234.234 1.014 3.439 1.132 6.251.352 8.438-.704 1.016-1.641 1.563-2.813 1.64zm-6.75-12.422c-1.641-2.265-3.243-3.867-4.805-4.804-.157-.077-.157-.156 0-.235.077 0 .235.041.469.118 2.968.626 4.999 1.367 6.094 2.226.624.782.624 1.72 0 2.813-.703.703-1.289.664-1.758-.118zm-8.32-5.742l-.117 4.219c-.158 1.095-.899 2.15-2.227 3.164-.313.158-.509.079-.586-.234l.117-3.75v-2.11l-.117-3.75 3.047 1.289c.234.079.273.235.117.469l-.234.703zm-13.477 8.438c-.392.234-.703.43-.937.586-.158 0-.235-.039-.235-.117 0-.077.039-.156.118-.235 2.655-2.186 4.804-4.96 6.445-8.32.155-.311.273-.39.351-.234l2.344 1.757c0 .079-.04.196-.117.352-1.954 1.875-4.611 3.946-7.969 6.211zm19.688-2.813c.155.158.117.235-.117.235l-.469.117c-2.97 1.798-7.149 3.556-12.539 5.273l.937.469 9.024-.234 1.289-1.641 2.929 1.758c.156.079.156.234 0 .469l-.703.937v8.438c0 1.406-.82 2.812-2.461 4.218-.468.312-.743.235-.82-.234-.313-1.172-.626-1.992-.937-2.461l-8.321.117c-.157.938-.664 1.835-1.523 2.696-.548.311-.861.272-.938-.118l.117-13.945a184.56 184.56 0 0 1-7.5 2.109c-.157 0-.234-.038-.234-.117-.079-.077-.04-.155.117-.234 8.828-2.734 15.507-6.054 20.039-9.961l2.11 2.109zm-4.571 9.961l-7.617.117v2.93l7.852-.234c.234 0 .351.078.351.234 0 .235-.117.352-.351.352l-7.852.234v3.398l8.789-.117c.235-.234.352-.545.352-.937l.117-9.492-9.141.234-.117 2.812 7.617-.234c.235 0 .352.117.352.352 0 .234-.117.351-.352.351zm-22.218 9.961c-3.516-.079-5.977-.313-7.383-.703-1.875-.703-3.36-2.303-4.453-4.805-.548 2.344-2.736 4.571-6.563 6.68-.234.077-.274 0-.117-.234 2.344-1.641 3.827-3.126 4.453-4.453.625-1.172.938-3.555.938-7.149l1.992.82c.234 0 .273.158.117.469l-.234.586c0 .158-.041.43-.118.82-.078.704-.157 1.213-.234 1.524.78 1.406 1.835 2.305 3.164 2.695V16.68l-1.523.117c-1.095 0-2.071.04-2.93.117l-.82-.82 5.273-.117V12.93l-2.695.117c-.235 0-.548.04-.938.117-1.016 0-1.681.079-1.992.234l-.82-.82a18.412 18.412 0 0 0-2.344 1.758v3.867l.117 5.625c.077 2.109-1.054 3.867-3.398 5.274-.313.155-.469.038-.469-.352.156-1.016-.157-1.758-.937-2.227-.079-.078-.118-.157-.118-.234.077-.079.194-.117.352-.117 1.483 0 2.148-.39 1.992-1.172l.117-8.789c-1.25 1.016-2.149 1.836-2.695 2.461-.234.234-.392.234-.469 0l-1.172-3.164c-.078-.077-.078-.117 0-.117-.078 0-.04-.039.118-.118.624-.155 1.834-.585 3.632-1.289.235-.077.429-.155.586-.234V8.477h-.468c-1.33.078-2.344.234-3.047.468l-.938-.937 4.453-.235v-.82c0-1.014-.04-2.344-.117-3.984V.977c.077-.077.194-.077.352 0l2.578.937c.234 0 .273.158.117.469l-.469.82v4.453h.703l1.407-1.406 1.64 1.406c.077.235.039.392-.117.469l-3.633.234-.117 4.336c1.172-.468 2.382-.976 3.633-1.523.234 0 .273.079.117.234-.469.313-.937.665-1.406 1.055l6.445-.117V9.297h-1.523c-1.172-.077-2.15 0-2.93.234l-.938-.82 5.391-.117v-2.93h-2.695c-1.251.079-2.267.196-3.047.352l-.82-.938 6.562-.117v-.352l-.117-3.75 3.164.938c.156.079.156.196 0 .351l-.586.938v1.875l3.867-.117 1.524-1.641 1.992 1.875c.156.079.156.196 0 .352l-7.383.117v2.93h2.578l1.406-1.407 2.11 1.524c.234.234.234.392 0 .468l-.586.704v2.343h.234l1.407-1.523 1.757 1.758c.156.157.118.234-.117.234l-3.398.117v2.93l.351.703c0 .234-.078.352-.234.352-.782-.156-2.305-.156-4.57 0h-.938l-.117 3.867h2.695l1.641-1.758 1.875 1.875c.155.158.155.275 0 .352l-6.211.117v4.336c1.172.157 3.592.117 7.266-.117.703-.077 1.248-.118 1.64-.118.156-.077.235-.038.235.118.076.078.038.195-.118.351-1.095.079-2.071 1.132-2.929 3.164zm-5.977-12.89l2.813-.118v-3.046l-2.813.117v3.047zm0-3.75h2.813l.117-3.047h-2.93v3.047zm-19.758 15c-1.25.076-2.657.858-4.219 2.343-3.673-1.406-6.562-3.204-8.671-5.39-1.954 2.186-5.86 4.101-11.719 5.742-.158 0-.275-.079-.352-.235 0-.078.077-.157.235-.234 5.467-1.641 9.1-3.788 10.898-6.445-1.016-1.328-1.836-2.93-2.461-4.805l.352-.117c.469 1.406 1.366 2.657 2.695 3.75.938-1.641 1.483-3.633 1.641-5.977l-3.282.118c-.313.781-.781 1.367-1.406 1.757a1.034 1.034 0 0 1-.469.118c-.078-.077-.117-.195-.117-.352V9.531c0-1.249-.04-2.069-.117-2.461 0-.155.117-.194.352-.117l1.64.82 3.633-.117c0-1.562-.079-2.734-.234-3.515h-1.641c-.234 0-.626.04-1.172.117-1.095 0-1.798.079-2.109.234l-.938-.82 12.539-.469 1.407-1.289 1.992 1.524.117.234c-.079.079-.157.117-.234.117l-9.141.352 1.523.937-.117 2.461 3.282-.117.937-1.289 2.813 1.406.117.117c.077 0 .077.079 0 .235l-.703 1.054v5.508c0 1.016-.548 2.071-1.641 3.164-.392.392-.743.392-1.055 0-.313-.78-.626-1.406-.937-1.875l-3.047.117c-.234 2.736-.938 5.039-2.11 6.914 2.813 1.564 6.757 2.892 11.836 3.985.156.077.195.155.118.234 0 .156-.079.235-.235.235zm-9.492-11.954l3.399-.117.117-7.148-3.399.117v3.047l2.11-.117c.234 0 .351.078.351.234 0 .234-.117.352-.351.352l-2.11.117-.117 1.992v1.523zm-1.875-6.328v-.703l-3.633.117v2.93h3.633V8.945zm0 3.985v-1.172l-3.633.117.117 3.516 3.399-.118c0-.703.038-1.483.117-2.343zM12.656 2.852l-.469.468c-1.094 2.033-2.226 3.867-3.398 5.508l.234 15.586c0 .861-.547 1.875-1.64 3.047-.158.156-.313.234-.469.234-.079 0-.117-.117-.117-.351l.117-7.852.117-8.203a59.269 59.269 0 0 1-6.328 6.914c-.079.079-.157.079-.234 0-.079-.156-.079-.273 0-.351 3.75-3.985 6.952-9.648 9.609-16.993l2.578 1.524c.156.079.156.196 0 .351.077 0 .077.041 0 .118z" class="cls-1"/></svg>

<svg xmlns="http://www.w3.org/2000/svg" xmlns:xlink="http://www.w3.org/1999/xlink" preserveAspectRatio="xMidYMid" width="120" height="30" viewBox="0 0 120 30">
  <defs>
    <style>
      .cls-1 {
        fill: #0d0d0d;
        fill-rule: evenodd;
      }
    </style>
  </defs>
  <path d="M114.703,19.492 C113.921,20.040 113.414,19.884 113.180,19.023 C112.242,15.665 110.953,13.243 109.313,11.758 C109.155,11.523 109.195,11.447 109.430,11.523 C113.570,13.164 115.835,14.805 116.227,16.445 C116.148,17.696 115.641,18.712 114.703,19.492 ZM109.430,23.125 L109.313,19.844 C109.313,19.688 109.389,19.571 109.547,19.492 C109.624,19.492 109.703,19.571 109.781,19.727 L110.602,22.070 C111.070,23.165 111.733,24.062 112.594,24.766 C113.843,25.703 113.687,26.562 112.125,27.344 C109.389,28.203 105.757,28.320 101.227,27.695 C98.648,27.227 97.398,25.392 97.477,22.188 L97.711,13.164 C97.711,10.820 97.671,9.414 97.594,8.945 C97.594,8.790 97.671,8.751 97.828,8.828 L100.992,10.234 C101.148,10.234 101.148,10.352 100.992,10.586 L100.641,11.289 L99.703,22.656 C99.546,24.220 100.289,25.000 101.930,25.000 C104.429,25.313 106.734,25.117 108.844,24.414 C109.313,24.258 109.507,23.828 109.430,23.125 ZM104.273,7.539 C103.257,4.884 101.930,3.086 100.289,2.148 C100.132,1.993 100.210,1.914 100.523,1.914 C104.508,3.009 106.617,4.064 106.852,5.078 C106.852,6.329 106.460,7.266 105.680,7.891 C104.898,8.359 104.429,8.242 104.273,7.539 ZM90.914,21.484 C90.053,21.329 89.977,20.626 90.680,19.375 C92.007,17.657 92.710,15.001 92.789,11.406 C92.789,11.251 92.906,11.172 93.141,11.172 C93.218,11.172 93.296,11.251 93.375,11.406 C94.389,14.845 94.507,17.657 93.727,19.844 C93.023,20.860 92.086,21.407 90.914,21.484 ZM84.164,9.062 C82.523,6.797 80.921,5.195 79.359,4.258 C79.202,4.181 79.202,4.102 79.359,4.023 C79.436,4.023 79.594,4.064 79.828,4.141 C82.796,4.767 84.827,5.508 85.922,6.367 C86.546,7.149 86.546,8.087 85.922,9.180 C85.219,9.883 84.633,9.844 84.164,9.062 ZM75.844,3.320 L75.727,7.539 C75.569,8.634 74.828,9.689 73.500,10.703 C73.187,10.861 72.991,10.782 72.914,10.469 L73.031,6.719 L73.031,4.609 L72.914,0.859 L75.961,2.148 C76.195,2.227 76.234,2.383 76.078,2.617 L75.844,3.320 ZM62.367,11.758 C61.975,11.992 61.664,12.188 61.430,12.344 C61.272,12.344 61.195,12.305 61.195,12.227 C61.195,12.150 61.234,12.071 61.313,11.992 C63.968,9.806 66.117,7.032 67.758,3.672 C67.913,3.361 68.031,3.282 68.109,3.438 L70.453,5.195 C70.453,5.274 70.413,5.391 70.336,5.547 C68.382,7.422 65.725,9.493 62.367,11.758 ZM82.055,8.945 C82.210,9.103 82.172,9.180 81.938,9.180 L81.469,9.297 C78.499,11.095 74.320,12.853 68.930,14.570 L69.867,15.039 L78.891,14.805 L80.180,13.164 L83.109,14.922 C83.265,15.001 83.265,15.156 83.109,15.391 L82.406,16.328 L82.406,21.484 L82.406,24.766 C82.406,26.172 81.586,27.578 79.945,28.984 C79.477,29.296 79.202,29.219 79.125,28.750 C78.812,27.578 78.499,26.758 78.188,26.289 L69.867,26.406 C69.710,27.344 69.203,28.241 68.344,29.102 C67.796,29.413 67.483,29.374 67.406,28.984 L67.523,15.039 C64.945,15.821 62.444,16.524 60.023,17.148 C59.866,17.148 59.789,17.110 59.789,17.031 C59.710,16.954 59.749,16.876 59.906,16.797 C68.734,14.063 75.413,10.743 79.945,6.836 L82.055,8.945 ZM77.484,18.906 L69.867,19.023 L69.867,21.953 L77.719,21.719 C77.953,21.719 78.070,21.797 78.070,21.953 C78.070,22.188 77.953,22.305 77.719,22.305 L69.867,22.539 L69.867,25.937 L78.656,25.820 C78.891,25.586 79.008,25.275 79.008,24.883 L79.125,15.391 L69.984,15.625 L69.867,18.437 L77.484,18.203 C77.719,18.203 77.836,18.320 77.836,18.555 C77.836,18.789 77.719,18.906 77.484,18.906 ZM55.266,28.867 C51.750,28.788 49.289,28.554 47.883,28.164 C46.008,27.461 44.523,25.861 43.430,23.359 C42.882,25.703 40.694,27.930 36.867,30.039 C36.633,30.116 36.593,30.039 36.750,29.805 C39.094,28.164 40.577,26.679 41.203,25.352 C41.828,24.180 42.141,21.797 42.141,18.203 L44.133,19.023 C44.367,19.023 44.406,19.181 44.250,19.492 L44.016,20.078 C44.016,20.236 43.975,20.508 43.898,20.898 C43.820,21.602 43.741,22.111 43.664,22.422 C44.444,23.828 45.499,24.727 46.828,25.117 L46.828,16.680 L45.305,16.797 C44.210,16.797 43.234,16.837 42.375,16.914 L41.555,16.094 L46.828,15.977 L46.828,12.930 L44.133,13.047 C43.898,13.047 43.585,13.087 43.195,13.164 C42.179,13.164 41.514,13.243 41.203,13.398 L40.383,12.578 C39.522,13.126 38.742,13.712 38.039,14.336 L38.039,18.203 L38.156,23.828 C38.233,25.937 37.102,27.695 34.758,29.102 C34.445,29.257 34.289,29.140 34.289,28.750 C34.445,27.734 34.132,26.992 33.352,26.523 C33.273,26.445 33.234,26.366 33.234,26.289 C33.311,26.210 33.428,26.172 33.586,26.172 C35.069,26.172 35.734,25.782 35.578,25.000 L35.695,16.211 C34.445,17.227 33.546,18.047 33.000,18.672 C32.766,18.906 32.608,18.906 32.531,18.672 L31.359,15.508 C31.281,15.431 31.281,15.391 31.359,15.391 C31.281,15.391 31.319,15.352 31.477,15.273 C32.101,15.118 33.311,14.688 35.109,13.984 C35.344,13.907 35.538,13.829 35.695,13.750 L35.695,8.477 L35.227,8.477 C33.897,8.555 32.883,8.711 32.180,8.945 L31.242,8.008 L35.695,7.773 L35.695,6.953 C35.695,5.939 35.655,4.609 35.578,2.969 C35.578,2.110 35.578,1.524 35.578,1.211 L35.578,0.977 C35.655,0.900 35.772,0.900 35.930,0.977 L38.508,1.914 C38.742,1.914 38.781,2.072 38.625,2.383 L38.156,3.203 L38.156,7.656 L38.859,7.656 L40.266,6.250 L41.906,7.656 C41.983,7.891 41.945,8.048 41.789,8.125 L38.156,8.359 L38.039,12.695 C39.211,12.227 40.421,11.719 41.672,11.172 C41.906,11.172 41.945,11.251 41.789,11.406 C41.320,11.719 40.852,12.071 40.383,12.461 L46.828,12.344 L46.828,9.297 L45.305,9.297 C44.133,9.220 43.155,9.297 42.375,9.531 L41.437,8.711 L46.828,8.594 L46.828,5.664 L44.133,5.664 C42.882,5.743 41.866,5.860 41.086,6.016 L40.266,5.078 L46.828,4.961 L46.828,4.609 L46.711,0.859 L49.875,1.797 C50.031,1.876 50.031,1.993 49.875,2.148 L49.289,3.086 L49.289,4.961 L53.156,4.844 L54.680,3.203 L56.672,5.078 C56.828,5.157 56.828,5.274 56.672,5.430 L49.289,5.547 L49.289,8.477 L51.867,8.477 L53.273,7.070 L55.383,8.594 C55.617,8.828 55.617,8.986 55.383,9.062 L54.797,9.766 L54.797,12.109 L55.031,12.109 L56.438,10.586 L58.195,12.344 C58.351,12.501 58.313,12.578 58.078,12.578 L54.680,12.695 L54.680,15.625 L55.031,16.328 C55.031,16.562 54.953,16.680 54.797,16.680 C54.015,16.524 52.492,16.524 50.227,16.680 L49.289,16.680 L49.172,20.547 L51.867,20.547 L53.508,18.789 L55.383,20.664 C55.538,20.822 55.538,20.939 55.383,21.016 L49.172,21.133 L49.172,25.469 C50.344,25.626 52.764,25.586 56.438,25.352 C57.141,25.275 57.686,25.234 58.078,25.234 C58.234,25.157 58.313,25.196 58.313,25.352 C58.389,25.430 58.351,25.547 58.195,25.703 C57.100,25.782 56.124,26.835 55.266,28.867 ZM49.289,15.977 L52.102,15.859 L52.102,12.813 L49.289,12.930 L49.289,15.977 ZM49.289,12.227 L52.102,12.227 L52.219,9.180 L49.289,9.180 L49.289,12.227 ZM29.531,27.227 C28.281,27.303 26.874,28.085 25.312,29.570 C21.639,28.164 18.750,26.366 16.641,24.180 C14.687,26.366 10.781,28.281 4.922,29.922 C4.764,29.922 4.647,29.843 4.570,29.687 C4.570,29.609 4.647,29.530 4.805,29.453 C10.272,27.812 13.905,25.665 15.703,23.008 C14.687,21.680 13.867,20.078 13.242,18.203 L13.594,18.086 C14.063,19.492 14.960,20.743 16.289,21.836 C17.227,20.195 17.772,18.203 17.930,15.859 L14.648,15.977 C14.335,16.758 13.867,17.344 13.242,17.734 C13.085,17.813 12.929,17.852 12.773,17.852 C12.695,17.775 12.656,17.657 12.656,17.500 L12.656,9.531 C12.656,8.282 12.616,7.462 12.539,7.070 C12.539,6.915 12.656,6.876 12.891,6.953 L14.531,7.773 L18.164,7.656 C18.164,6.094 18.085,4.922 17.930,4.141 L16.289,4.141 C16.055,4.141 15.663,4.181 15.117,4.258 C14.022,4.258 13.319,4.337 13.008,4.492 L12.070,3.672 L24.609,3.203 L26.016,1.914 L28.008,3.438 L28.125,3.672 C28.046,3.751 27.968,3.789 27.891,3.789 L18.750,4.141 L20.273,5.078 L20.156,7.539 L23.438,7.422 L24.375,6.133 L27.188,7.539 L27.305,7.656 C27.382,7.656 27.382,7.735 27.305,7.891 L26.602,8.945 L26.602,14.453 C26.602,15.469 26.054,16.524 24.961,17.617 C24.569,18.009 24.218,18.009 23.906,17.617 C23.593,16.837 23.280,16.211 22.969,15.742 L19.922,15.859 C19.688,18.595 18.984,20.898 17.812,22.773 C20.625,24.337 24.569,25.665 29.648,26.758 C29.804,26.835 29.843,26.913 29.766,26.992 C29.766,27.148 29.687,27.227 29.531,27.227 ZM20.039,15.273 L23.438,15.156 L23.555,8.008 L20.156,8.125 L20.156,11.172 L22.266,11.055 C22.500,11.055 22.617,11.133 22.617,11.289 C22.617,11.523 22.500,11.641 22.266,11.641 L20.156,11.758 L20.039,13.750 C20.039,14.297 20.039,14.805 20.039,15.273 ZM18.164,8.945 C18.164,8.711 18.164,8.477 18.164,8.242 L14.531,8.359 L14.531,11.289 L18.164,11.289 L18.164,8.945 ZM18.164,12.930 L18.164,11.758 L14.531,11.875 L14.648,15.391 L18.047,15.273 C18.047,14.570 18.085,13.790 18.164,12.930 ZM12.656,2.852 L12.187,3.320 C11.093,5.353 9.961,7.187 8.789,8.828 L9.023,24.414 C9.023,25.275 8.476,26.289 7.383,27.461 C7.225,27.617 7.070,27.695 6.914,27.695 C6.835,27.695 6.797,27.578 6.797,27.344 L6.914,19.492 L7.031,11.289 C5.078,13.790 2.968,16.094 0.703,18.203 C0.624,18.282 0.546,18.282 0.469,18.203 C0.390,18.047 0.390,17.930 0.469,17.852 C4.219,13.867 7.421,8.204 10.078,0.859 L12.656,2.383 C12.812,2.462 12.812,2.579 12.656,2.734 C12.733,2.734 12.733,2.775 12.656,2.852 Z" class="cls-1"/>
</svg>
